X:1
T:Praise Him when the Sun Goes Down
M:4/4
L:1/8
K:G
A:Unknown
C:Unknown
Z:abc-transcription www.GodSongs.net
,
"G" (D3E) G4 | "Em"(B3A) G4| "C" G>G G>G A2G2 | "Am" G>G G>G
"D" E2D2 |
w: 1~~~Pra-ise him, pr-aise him, praise him in the morn-ing, praise him in
the noon-time.
w: 2~~~Lo-ve him, lo-ve him, love him in the morn-ing, love him in the
noon-time.
w: 3~~~Je--sus, Je--sus, Je-sus in the morn-ing, Je-sus in the
noon-time.
"G" (D3E) G4 | "Em" (B3A) G4| "Am" B>B B>c "D" B2A2 | "G" G8 |]
w: 1~~~Pra-ise him, pr-aise him, praise him when the sun goes down.
w: 2~~~Lo-ve him, lo-ve him, love him when the sun goes down.
w: 3~~~Je--sus, Je--sus, Je-sus when the sun goes down.

